ui/StatusQ/src/assets/img/icons/check.svg

<svg fill="none" height="8" viewBox="0 0 11 8" width="11" xmlns="http://www.w3.org/2000/svg"><path clip-rule="evenodd" d="m3.76413 5.69006 5.56066-5.411179c.38197-.3717068 1.00001-.3729713 1.38631.002989.3837.373358.3857.97674.0031 1.34906l-6.25845 6.09019c-.18993.18483-.43822.27807-.68737.27888-.25655-.00188-.50554-.09366-.69254-.27563l-2.791608-2.71657c-.3801333-.36991-.3799398-.96985.006406-1.34581.383671-.37336 1.007992-.37115 1.382992-.00623z" fill="#fff" fill-rule="evenodd"/></svg>

<svg width="11" height="8" viewBox="0 0 11 8" fill="none" xmlns="http://www.w3.org/2000/svg">
<path fill-rule="evenodd" clip-rule="evenodd" d="M3.76413 5.69006L9.32479 0.278881C9.70676 -0.0928258 10.3248 -0.0940903 10.7111 0.28187C11.0948 0.655228 11.0968 1.25861 10.7142 1.63093L4.45575 7.72112C4.26582 7.90595 4.01753 7.99919 3.76838 8C3.51183 7.99812 3.26284 7.90634 3.07584 7.72437L0.284232 5.0078C-0.0959013 4.63789 -0.0957078 4.03795 0.290638 3.66199C0.674309 3.28863 1.29863 3.29084 1.67363 3.65576L3.76413 5.69006Z" fill="white"/>
</svg>
